packages/foundations/assets/icons/functional/images/buildings/house_16.svg

<svg width="16" height="16" viewBox="0 0 16 16" fill="none" xmlns="http://www.w3.org/2000/svg">
<g clip-path="url(#clip0_184_195)">
<path fill-rule="evenodd" clip-rule="evenodd" d="M7.99999 1.60001C8.79599 1.60001 9.16999 2.06801 9.51399 2.41201L14.166 7.04801C14.2415 7.12373 14.3011 7.21378 14.3413 7.31287C14.3815 7.41196 14.4014 7.51809 14.4 7.62501C14.4 8.07801 14.025 8.42101 13.573 8.42101C13.385 8.42101 13.213 8.37501 13.089 8.25001L12.792 7.93801V13.588C12.792 14.025 12.386 14.4 11.996 14.4H4.00399C3.79232 14.3931 3.59147 14.3048 3.44321 14.1536C3.29496 14.0023 3.21071 13.7998 3.20799 13.588V7.93801L2.97399 8.18801C2.9003 8.26197 2.8127 8.32063 2.71625 8.36062C2.6198 8.40061 2.5164 8.42113 2.41199 8.42101C1.94299 8.42101 1.59999 8.06201 1.59999 7.59401C1.59796 7.41941 1.6652 7.25113 1.78699 7.12601L6.48599 2.41201C6.82899 2.06801 7.20399 1.60001 7.99999 1.60001ZM7.99999 3.20001L4.79999 6.40001V12.8H11.2V6.40001L7.99999 3.20001Z" fill="#1A1C1F"/>
</g>
<defs>
<clipPath id="clip0_184_195">
<rect width="16" height="16" fill="white"/>
</clipPath>
</defs>
</svg>

<svg xmlns="http://www.w3.org/2000/svg" width="16" height="16" fill="none"><g clip-path="url(#a)"><path fill="#1A1C1F" fill-rule="evenodd" d="M8 1.6c.796 0 1.17.468 1.514.812l4.652 4.636a.8.8 0 0 1 .234.577c0 .453-.375.796-.827.796-.188 0-.36-.046-.484-.171l-.297-.312v5.65c0 .437-.406.812-.796.812H4.004a.823.823 0 0 1-.796-.812v-5.65l-.234.25a.8.8 0 0 1-.562.233c-.469 0-.812-.359-.812-.827a.66.66 0 0 1 .187-.468l4.699-4.714C6.829 2.068 7.204 1.6 8 1.6m0 1.6L4.8 6.4v6.4h6.4V6.4z" clip-rule="evenodd"/></g><defs><clipPath id="a"><path fill="#fff" d="M0 0h16v16H0z"/></clipPath></defs></svg>
